X: 40
T: Lan gong diao
%%abc-version 2.0
%%abcx-abcm2ps-target-version 5.9.1 (29 Sep 2008)
%%abc-creator hum2abc beta
%%abcx-conversion-date 2013/10/02 07:44:27
%%abc-edited-by Helmut Schaffrath
%%humdrum-veritas 1853712793
%%humdrum-veritas-data 1963906691
%%continueall 1
%%barnumbers 0
L: 1/16
M: 2/4
K: Bb
f f f gc'4c'4 [I:setbarnb 1]| 
c'2> f'2 c'2 c'2 | 
[M:3/4]g b g fg4f3 b | 
[M:2/4]g f e d c2 z2 | 
f f2 g c'2 c' b | 
g b f g c'2 b g | 
[M:3/4]f e2 fg4b3 g | 
f e d2 c2 z2 |]  



